**kern	**kern	**kern	**kern
*part4	*part3	*part2	*part1
*staff4	*staff3	*staff2	*staff1
*I"Viola	*I"Violin	*I"Violin	*I"Horn in Ab
*I'Vla.	*I'Vln.	*I'Vln.	*I'F Hn.
*clefC3	*clefG2	*clefG2	*clefG2
*	*	*	*ITrd2c4
*k[b-e-a-d-]	*k[b-e-a-d-]	*k[b-e-a-d-]	*k[b-e-a-d-]
*M3/4	*M3/4	*M3/4	*M3/4
(8GL	8cL	4r	4c 4cc
8A-J)	8cJ	.	.
=1	=1	=1	=1
*tremolo	*	*	*
(16GLL	4c	2.r	[2.c [2.cc
16A-)	.	.	.
16G	.	.	.
16A-)	.	.	.
16G	8r	.	.
16A-)	.	.	.
16G	8cL	.	.
16A-)	.	.	.
16G	8c	.	.
16A-)	.	.	.
16G	8dnJ	.	.
16A-)JJ	.	.	.
=2	=2	=2	=2
(16GLL	4e-	2.r	2.c_ 2.cc_
16A-)	.	.	.
16G	.	.	.
16A-)	.	.	.
16G	8r	.	.
16A-)	.	.	.
16G	8e-L	.	.
16A-)	.	.	.
16G	8e-	.	.
16A-)	.	.	.
16G	8fJ	.	.
16A-)JJ	.	.	.
=3	=3	=3	=3
(16GLL	4g	2.r	2c] 2cc]
16A-)	.	.	.
16G	.	.	.
16A-)	.	.	.
16G	8r	.	.
16A-)	.	.	.
16G	8gL	.	.
16A-)	.	.	.
16G	8g	.	[4c [4cc
16A-)	.	.	.
16G	8a-J	.	.
16A-)JJ	.	.	.
=4	=4	=4	=4
(16GLL	4Bn	2.r	4c] 4cc]
16A-)	.	.	.
16G	.	.	.
16A-)	.	.	.
16G	8r	.	4r
16A-)	.	.	.
16G	8BL	.	.
16A-)	.	.	.
16G	8B	.	[4c [4cc
16A-)	.	.	.
16G	8cJ	.	.
16A-)JJ	.	.	.
=5	=5	=5	=5
(16GLL	4dn	4bn	2.c_ 2.cc_
16A-)	.	.	.
16G	.	.	.
16A-)	.	.	.
16G	4r	8r	.
16A-)	.	.	.
16G	.	8bL	.
16A-)	.	.	.
16G	4r	8b	.
16A-)	.	.	.
16G	.	8ccJ	.
16A-)JJ	.	.	.
!!linebreak:original
=6	=6	=6	=6
(16GLL	2.r	4ddn	2.c_ 2.cc_
16A-)	.	.	.
16G	.	.	.
16A-)	.	.	.
16G	.	8r	.
16A-)	.	.	.
16G	.	8ddL	.
16A-)	.	.	.
16G	.	8dd	.
16A-)	.	.	.
16G	.	8ee-J	.
16A-)JJ	.	.	.
=7	=7	=7	=7
(16GLL	2.r	4ff	2c] 2cc]
16A-)	.	.	.
16G	.	.	.
16A-)	.	.	.
16G	.	8r	.
16A-)	.	.	.
16G	.	8ddnL	.
16A-)JJ	.	.	.
*Xtremolo	*	*	*
4G	.	8ee-	4c 4cc
.	.	8ffJ	.
==	==	==	==
*-	*-	*-	*-
!!!system-decoration: s1,s2,s3,s4
